symbolic/22x22/panel/irc-channel-parted.svg

<svg xmlns="http://www.w3.org/2000/svg" width="22" height="22" version="1.1">
 <defs>
  <style id="current-color-scheme" type="text/css">
   .ColorScheme-Text { color:#323a41; } .ColorScheme-Highlight { color:#4285f4; } .ColorScheme-NeutralText { color:#ff9800; } .ColorScheme-PositiveText { color:#4caf50; } .ColorScheme-NegativeText { color:#f44336; }
  </style>
 </defs>
 <path opacity=".3" style="fill:currentColor" class="ColorScheme-Text" d="m7 3v4h-4v2h4v4h-4v2h4v4h2v-4h4v4h2v-4h4v-2h-4v-4h4v-2h-4v-4h-2v4h-4v-4zm2 6h4v4h-4z"/>
</svg>

<svg xmlns="http://www.w3.org/2000/svg" width="22" height="22"><defs><style id="current-color-scheme" type="text/css"></style></defs><path opacity=".3" style="fill:currentColor;color:#323a41" d="M7 3v4H3v2h4v4H3v2h4v4h2v-4h4v4h2v-4h4v-2h-4V9h4V7h-4V3h-2v4H9V3zm2 6h4v4H9z"/></svg>
